; generated by PrusaSlicer 2.5.0+win64 on 2022-11-22 at 08:39:41 UTC

; 

; external perimeters extrusion width = 0.45mm
; perimeters extrusion width = 0.45mm
; infill extrusion width = 0.45mm
; solid infill extrusion width = 0.45mm
; top infill extrusion width = 0.40mm
; support material extrusion width = 0.35mm
; first layer extrusion width = 0.42mm

M73 P0 R71
M73 Q0 S72
M201 X1000 Y1000 Z200 E5000 ; sets maximum accelerations, mm/sec^2
M203 X200 Y200 Z12 E120 ; sets maximum feedrates, mm / sec
M204 P1250 R1250 T1250 ; sets acceleration (P, T) and retract acceleration (R), mm/sec^2
M205 X8.00 Y8.00 Z0.40 E4.50 ; sets the jerk limits, mm/sec
M205 S0 T0 ; sets the minimum extruding and travel feed rate, mm/sec
M107
;TYPE:Custom
M862.3 P "MK3S" ; printer model check
M862.1 P0.4 ; nozzle diameter check
M115 U3.10.1 ; tell printer latest fw version
G90 ; use absolute coordinates
M83 ; extruder relative mode
M104 S215 ; set extruder temp
M140 S60 ; set bed temp
M190 S60 ; wait for bed temp
M109 S215 ; wait for extruder temp
G28 W ; home all without mesh bed level
G80 ; mesh bed leveling
G1 Z0.2 F720
G1 Y-3 F1000 ; go outside print area
G92 E0
G1 X60 E9 F1000 ; intro line
G1 X100 E12.5 F1000 ; intro line
G92 E0
M221 S95

; Don't change E values below. Excessive value can damage the printer.
M907 E430 ; set extruder motor current
G21 ; set units to millimeters
G90 ; use absolute coordinates
M83 ; use relative distances for extrusion
M900 K0.05 ; Filament gcode LA 1.5
M900 K30 ; Filament gcode LA 1.0
M107
;LAYER_CHANGE
;Z:0.2
;HEIGHT:0.2
;BEFORE_LAYER_CHANGE
G92 E0.0
;0.2


G1 E-.8 F2100
G1 Z.4 F720
;AFTER_LAYER_CHANGE
;0.2
; printing object deauther-case-top.stl id:0 copy 0
G1 X138.72 Y111.849 F10800
G1 Z.2 F720
G1 E.8 F2100
M204 S800
;TYPE:Support material
;WIDTH:0.42
G1 F1200
G1 X139.001 Y112.13 E.01247
G1 X139.72 Y112.13 E.02254
G1 X139.72 Y138.97 E.84155
G1 X110.28 Y138.97 E.92307
G1 X110.28 Y112.13 E.84155
G1 X110.999 Y112.13 E.02254
G1 X111.28 Y111.849 E.01247
G1 X111.28 Y72.53 E1.23281
G1 X138.72 Y72.53 E.86036
G1 X138.72 Y111.792 E1.23104
M204 S1000
G1 X116.36 Y121.856 F10800
M204 S800
G1 F1200
G1 X116.36 Y125.229 E.10578
G1 X133.64 Y125.229 E.54182
G1 X133.64 Y121.856 E.10578
G1 X116.416 Y121.856 E.54004
M204 S1000
;WIPE_START
G1 F8640
M73 Q0 S71
G1 X119.708 Y121.856 E-.76
;WIPE_END
G1 E-.04 F2100
G1 Z.6 F720
G1 X139.245 Y138.8 F10800
G1 Z.2 F720
G1 E.8 F2100
M204 S800
G1 F1200
G1 X139.245 Y112.469 E.82559
G1 X138.861 Y112.469 E.01206
G1 X138.826 Y112.435 E.00152
G1 X138.826 Y138.631 E.82135
G1 X138.407 Y138.631 E.01314
G1 X138.407 Y112.016 E.83448
G1 X138.381 Y111.989 E.00118
G1 X138.381 Y72.869 E1.22658
G1 X137.988 Y72.869 E.0123
G1 X137.988 Y138.631 E2.0619
G1 X137.569 Y138.631 E.01314
G1 X137.569 Y72.869 E2.0619
G1 X137.15 Y72.869 E.01314
G1 X137.15 Y138.631 E2.0619
G1 X136.731 Y138.631 E.01314
G1 X136.731 Y72.869 E2.0619
G1 X136.312 Y72.869 E.01314
G1 X136.312 Y138.631 E2.0619
G1 X135.893 Y138.631 E.01314
G1 X135.893 Y72.869 E2.0619
G1 X135.474 Y72.869 E.01314
M73 P1 R71
M73 Q1 S71
G1 X135.474 Y138.631 E2.0619
G1 X135.055 Y138.631 E.01314
M73 P1 R70
G1 X135.055 Y72.869 E2.0619
G1 X134.636 Y72.869 E.01314
G1 X134.636 Y138.631 E2.0619
G1 X134.217 Y138.631 E.01314
G1 X134.217 Y72.869 E2.0619
G1 X133.799 Y72.869 E.01314
G1 X133.799 Y121.516 E1.52529
G1 X133.38 Y121.516 E.01314
G1 X133.38 Y72.869 E1.52529
G1 X132.961 Y72.869 E.01314
G1 X132.961 Y121.516 E1.52529
G1 X132.542 Y121.516 E.01314
G1 X132.542 Y72.869 E1.52529
G1 X132.123 Y72.869 E.01314
G1 X132.123 Y121.516 E1.52529
G1 X131.704 Y121.516 E.01314
G1 X131.704 Y72.869 E1.52529
G1 X131.285 Y72.869 E.01314
G1 X131.285 Y121.516 E1.52529
G1 X130.866 Y121.516 E.01314
G1 X130.866 Y72.869 E1.52529
G1 X130.447 Y72.869 E.01314
M73 Q1 S70
G1 X130.447 Y121.516 E1.52529
G1 X130.028 Y121.516 E.01314
G1 X130.028 Y72.869 E1.52529
G1 X129.609 Y72.869 E.01314
G1 X129.609 Y121.516 E1.52529
G1 X129.19 Y121.516 E.01314
M73 P2 R70
M73 Q2 S70
G1 X129.19 Y72.869 E1.52529
G1 X128.771 Y72.869 E.01314
G1 X128.771 Y121.516 E1.52529
G1 X128.352 Y121.516 E.01314
G1 X128.352 Y72.869 E1.52529
G1 X127.933 Y72.869 E.01314
G1 X127.933 Y121.516 E1.52529
G1 X127.514 Y121.516 E.01314
G1 X127.514 Y72.869 E1.52529
G1 X127.095 Y72.869 E.01314
G1 X127.095 Y121.516 E1.52529
G1 X126.676 Y121.516 E.01314
G1 X126.676 Y72.869 E1.52529
G1 X126.257 Y72.869 E.01314
G1 X126.257 Y121.516 E1.52529
G1 X125.838 Y121.516 E.01314
M73 P2 R69
G1 X125.838 Y72.869 E1.52529
G1 X125.419 Y72.869 E.01314
G1 X125.419 Y121.516 E1.52529
G1 X125 Y121.516 E.01314
G1 X125 Y72.869 E1.52529
G1 X124.581 Y72.869 E.01314
G1 X124.581 Y121.516 E1.52529
G1 X124.162 Y121.516 E.01314
G1 X124.162 Y72.869 E1.52529
G1 X123.743 Y72.869 E.01314
G1 X123.743 Y121.516 E1.52529
G1 X123.324 Y121.516 E.01314
G1 X123.324 Y72.869 E1.52529
G1 X122.905 Y72.869 E.01314
G1 X122.905 Y121.516 E1.52529
G1 X122.486 Y121.516 E.01314
G1 X122.486 Y72.869 E1.52529
G1 X122.067 Y72.869 E.01314
G1 X122.067 Y121.516 E1.52529
G1 X121.648 Y121.516 E.01314
M73 P3 R69
M73 Q3 S70
G1 X121.648 Y72.869 E1.52529
G1 X121.229 Y72.869 E.01314
G1 X121.229 Y121.516 E1.52529
G1 X120.81 Y121.516 E.01314
G1 X120.81 Y72.869 E1.52529
G1 X120.391 Y72.869 E.01314
G1 X120.391 Y121.516 E1.52529
G1 X119.972 Y121.516 E.01314
M73 Q3 S69
G1 X119.972 Y72.869 E1.52529
G1 X119.553 Y72.869 E.01314
G1 X119.553 Y121.516 E1.52529
G1 X119.134 Y121.516 E.01314
G1 X119.134 Y72.869 E1.52529
G1 X118.715 Y72.869 E.01314
G1 X118.715 Y121.516 E1.52529
G1 X118.296 Y121.516 E.01314
G1 X118.296 Y72.869 E1.52529
G1 X117.877 Y72.869 E.01314
G1 X117.877 Y121.516 E1.52529
G1 X117.458 Y121.516 E.01314
G1 X117.458 Y72.869 E1.52529
G1 X117.039 Y72.869 E.01314
G1 X117.039 Y121.516 E1.52529
G1 X116.62 Y121.516 E.01314
G1 X116.62 Y72.869 E1.52529
G1 X116.201 Y72.869 E.01314
G1 X116.201 Y121.516 E1.52529
G1 X116.02 Y121.516 E.00568
G1 X116.02 Y125.569 E.12706
G1 X116.201 Y125.569 E.00568
G1 X116.201 Y138.631 E.40955
G1 X116.62 Y138.631 E.01314
M73 P3 R68
G1 X116.62 Y125.569 E.40955
G1 X117.039 Y125.569 E.01314
G1 X117.039 Y138.631 E.40955
G1 X117.458 Y138.631 E.01314
G1 X117.458 Y125.569 E.40955
G1 X117.877 Y125.569 E.01314
G1 X117.877 Y138.631 E.40955
G1 X118.296 Y138.631 E.01314
G1 X118.296 Y125.569 E.40955
G1 X118.715 Y125.569 E.01314
G1 X118.715 Y138.631 E.40955
G1 X119.134 Y138.631 E.01314
G1 X119.134 Y125.569 E.40955
G1 X119.553 Y125.569 E.01314
G1 X119.553 Y138.631 E.40955
G1 X119.972 Y138.631 E.01314
G1 X119.972 Y125.569 E.40955
G1 X120.391 Y125.569 E.01314
M73 P4 R68
G1 X120.391 Y138.631 E.40955
G1 X120.81 Y138.631 E.01314
M73 Q4 S69
G1 X120.81 Y125.569 E.40955
G1 X121.229 Y125.569 E.01314
G1 X121.229 Y138.631 E.40955
G1 X121.648 Y138.631 E.01314
G1 X121.648 Y125.569 E.40955
G1 X122.067 Y125.569 E.01314
G1 X122.067 Y138.631 E.40955
G1 X122.486 Y138.631 E.01314
G1 X122.486 Y125.569 E.40955
G1 X122.905 Y125.569 E.01314
G1 X122.905 Y138.631 E.40955
G1 X123.324 Y138.631 E.01314
G1 X123.324 Y125.569 E.40955
G1 X123.743 Y125.569 E.01314
G1 X123.743 Y138.631 E.40955
G1 X124.162 Y138.631 E.01314
G1 X124.162 Y125.569 E.40955
G1 X124.581 Y125.569 E.01314
G1 X124.581 Y138.631 E.40955
G1 X125 Y138.631 E.01314
G1 X125 Y125.569 E.40955
G1 X125.419 Y125.569 E.01314
G1 X125.419 Y138.631 E.40955
G1 X125.838 Y138.631 E.01314
G1 X125.838 Y125.569 E.40955
G1 X126.257 Y125.569 E.01314
G1 X126.257 Y138.631 E.40955
G1 X126.676 Y138.631 E.01314
G1 X126.676 Y125.569 E.40955
G1 X127.095 Y125.569 E.01314
G1 X127.095 Y138.631 E.40955
G1 X127.514 Y138.631 E.01314
G1 X127.514 Y125.569 E.40955
G1 X127.933 Y125.569 E.01314
G1 X127.933 Y138.631 E.40955
G1 X128.352 Y138.631 E.01314
G1 X128.352 Y125.569 E.40955
G1 X128.771 Y125.569 E.01314
G1 X128.771 Y138.631 E.40955
G1 X129.19 Y138.631 E.01314
G1 X129.19 Y125.569 E.40955
G1 X129.609 Y125.569 E.01314
G1 X129.609 Y138.631 E.40955
G1 X130.028 Y138.631 E.01314
G1 X130.028 Y125.569 E.40955
G1 X130.447 Y125.569 E.01314
G1 X130.447 Y138.631 E.40955
G1 X130.866 Y138.631 E.01314
G1 X130.866 Y125.569 E.40955
G1 X131.285 Y125.569 E.01314
G1 X131.285 Y138.631 E.40955
G1 X131.704 Y138.631 E.01314
G1 X131.704 Y125.569 E.40955
G1 X132.123 Y125.569 E.01314
G1 X132.123 Y138.631 E.40955
G1 X132.542 Y138.631 E.01314
G1 X132.542 Y125.569 E.40955
G1 X132.961 Y125.569 E.01314
G1 X132.961 Y138.631 E.40955
G1 X133.38 Y138.631 E.01314
G1 X133.38 Y125.569 E.40955
G1 X133.799 Y125.569 E.01314
G1 X133.799 Y138.8 E.41487
M204 S1000
G1 X115.783 Y138.8 F10800
M204 S800
G1 F1200
G1 X115.783 Y72.869 E2.06722
G1 X115.364 Y72.869 E.01314
M73 Q4 S68
G1 X115.364 Y138.631 E2.0619
G1 X114.945 Y138.631 E.01314
G1 X114.945 Y72.869 E2.0619
G1 X114.526 Y72.869 E.01314
G1 X114.526 Y138.631 E2.0619
G1 X114.107 Y138.631 E.01314
G1 X114.107 Y72.869 E2.0619
G1 X113.688 Y72.869 E.01314
G1 X113.688 Y138.631 E2.0619
G1 X113.269 Y138.631 E.01314
M73 P5 R68
G1 X113.269 Y72.869 E2.0619
G1 X112.85 Y72.869 E.01314
M73 Q5 S68
G1 X112.85 Y138.631 E2.0619
G1 X112.431 Y138.631 E.01314
G1 X112.431 Y72.869 E2.0619
G1 X112.012 Y72.869 E.01314
G1 X112.012 Y138.631 E2.0619
G1 X111.593 Y138.631 E.01314
M73 P5 R67
G1 X111.593 Y112.016 E.83448
G1 X111.174 Y112.435 E.01858
G1 X111.174 Y138.631 E.82135
G1 X110.755 Y138.631 E.01314
G1 X110.755 Y112.3 E.82559
M204 S1000
;WIPE_START
G1 F8640
G1 X110.755 Y115.591 E-.76
;WIPE_END
G1 E-.04 F2100
G1 Z.6 F720
G1 X109.602 Y139.62 F10800
G1 Z.2 F720
G1 E.8 F2100
M204 S800
;TYPE:External perimeter
;WIDTH:0.506564
G1 F1200
G1 X109.757 Y139.679 E.00641
;WIDTH:0.464784
G1 X110.279 Y139.711 E.01834
;WIDTH:0.419999
G1 X110.778 Y139.81 E.01596
G1 X111.293 Y139.852 E.01618
G1 X112.29 Y139.86 E.03128
G1 X138.207 Y139.859 E.81259
G1 X139.216 Y139.81 E.03167
G1 X139.733 Y139.709 E.01653
;WIDTH:0.465803
G1 X140.243 Y139.68 E.01797
;WIDTH:0.503294
G1 X140.392 Y139.624 E.0061
G1 X140.202 Y139.865 E.01176
;WIDTH:0.461647
G1 X140.012 Y140.106 E.0107
;WIDTH:0.419999
G1 X139.502 Y140.44 E.0191
G1 X139.037 Y140.697 E.01665
G1 X138.742 Y140.795 E.00977
G1 X138.375 Y140.84 E.0116
G1 X111.59 Y140.839 E.83982
G1 X111.293 Y140.802 E.00936
G1 X110.927 Y140.681 E.01209
G1 X109.964 Y140.083 E.03555
;WIDTH:0.463282
G1 X109.783 Y139.851 E.01028
;WIDTH:0.506564
G1 X109.639 Y139.667 E.00902
M204 S1000
;WIPE_START
G1 F8640
G1 X109.757 Y139.679 E-.02742
G1 X110.279 Y139.711 E-.12071
G1 X110.778 Y139.81 E-.11752
G1 X111.293 Y139.852 E-.11919
G1 X112.29 Y139.86 E-.23035
G1 X112.917 Y139.86 E-.14481
;WIPE_END
G1 E-.04 F2100
G1 Z.6 F720
G1 X138.601 Y140.328 F10800
G1 Z.2 F720
G1 E.8 F2100
M204 S800
;TYPE:Perimeter
;WIDTH:0.646338
G1 F1200
G1 X138.207 Y140.35 E.01981
G1 X112.292 Y140.349 E1.30027
;WIDTH:0.65001
G1 X111.359 Y140.33 E.0471
M204 S1000
;WIPE_START
G1 F8640
G1 X111.59 Y140.346 E-.0535
G1 X112.292 Y140.349 E-.16205
G1 X114.65 Y140.349 E-.54444
;WIPE_END
G1 E-.04 F2100
G1 Z.6 F720
G1 X108.735 Y108.967 F10800
G1 Z.2 F720
G1 E.8 F2100
M204 S800
;WIDTH:0.419999
G1 F1200
G1 X108.787 Y109.25 E.00902
G1 X108.779 Y109.348 E.00308
G1 X108.679 Y109.838 E.01569
G1 X108.598 Y110.036 E.0067
G1 X108.297 Y110.48 E.01682
G1 X107.837 Y110.816 E.01787
G1 X107.605 Y110.923 E.008
G1 X107.13 Y111.025 E.01523
G1 X106.905 Y111.027 E.00705
G1 X106.285 Y110.887 E.01992
G1 X105.862 Y110.62 E.01571
G1 X105.707 Y110.472 E.0067
G1 X105.407 Y110.051 E.01622
;WIDTH:0.447546
G1 X105.213 Y109.401 E.02281
;WIDTH:0.450778
G1 X105.207 Y109.17 E.00782
G1 X105.309 Y108.695 E.01648
;WIDTH:0.419999
G1 X105.393 Y108.486 E.00705
G1 X105.659 Y108.08 E.01523
G1 X105.817 Y107.92 E.00705
G1 X106.221 Y107.65 E.01522
G1 X106.667 Y107.514 E.01463
G1 X107.062 Y107.472 E.01246
G1 X107.61 Y107.571 E.01745
G1 X108.156 Y107.897 E.01996
G1 X108.317 Y108.054 E.00705
G1 X108.592 Y108.455 E.01523
G1 X108.679 Y108.662 E.00705
G1 X108.725 Y108.908 E.00785
M204 S1000
G1 X108.407 Y109.283 F10800
M204 S800
;TYPE:External perimeter
G1 F1200
G1 X108.301 Y109.794 E.01639
G1 X108.022 Y110.221 E.01598
G1 X107.595 Y110.525 E.01643
G1 X107.067 Y110.653 E.01705
G1 X106.5 Y110.565 E.01798
G1 X106.065 Y110.302 E.01593
G1 X105.731 Y109.858 E.01743
G1 X105.595 Y109.316 E.01754
G1 X105.68 Y108.763 E.01754
G1 X105.974 Y108.287 E.01754
G1 X106.43 Y107.964 E.01753
G1 X106.927 Y107.844 E.016
G1 X107.474 Y107.925 E.01735
G1 X107.953 Y108.215 E.01753
G1 X108.281 Y108.668 E.01754
G1 X108.407 Y109.223 E.01784
M204 S1000
G1 X108.753 Y109.483 F10800
;WIPE_START
G1 F8640
G1 X108.301 Y109.794 E-.13425
G1 X108.022 Y110.221 E-.11768
G1 X107.595 Y110.525 E-.121
G1 X107.067 Y110.653 E-.12557
G1 X106.5 Y110.565 E-.13242
G1 X106.065 Y110.302 E-.11729
G1 X106.035 Y110.261 E-.01179
;WIPE_END
G1 E-.04 F2100
G1 Z.6 F720
G1 X142.351 Y110.898 F10800
G1 Z.2 F720
G1 E.8 F2100
M204 S800
;TYPE:Perimeter
G1 F1200
G1 X142.155 Y110.806 E.0068
G1 X141.736 Y110.513 E.01602
G1 X141.418 Y110.068 E.01717
G1 X141.333 Y109.872 E.0067
G1 X141.222 Y109.372 E.01604
G1 X141.222 Y109.173 E.00624
G1 X141.309 Y108.695 E.01523
G1 X141.393 Y108.487 E.00705
G1 X141.659 Y108.08 E.01523
G1 X141.817 Y107.92 E.00705
G1 X142.301 Y107.606 E.01809
G1 X142.848 Y107.476 E.01765
G1 X143.062 Y107.472 E.0067
G1 X143.566 Y107.559 E.01603
G1 X144.156 Y107.897 E.02133
G1 X144.317 Y108.054 E.00705
G1 X144.592 Y108.455 E.01523
G1 X144.679 Y108.662 E.00705
;WIDTH:0.444307
G1 X144.799 Y109.25 E.02004
G1 X144.679 Y109.838 E.02004
;WIDTH:0.419999
G1 X144.598 Y110.036 E.0067
G1 X144.238 Y110.534 E.01928
G1 X143.811 Y110.834 E.01633
G1 X143.605 Y110.923 E.00705
G1 X143.13 Y111.025 E.01523
G1 X142.821 Y111.011 E.00971
G1 X142.405 Y110.924 E.01332
M204 S1000
G1 X142.5 Y110.565 F10800
M204 S800
;TYPE:External perimeter
G1 F1200
G1 X142.027 Y110.266 E.01754
G1 X141.729 Y109.855 E.01593
G1 X141.595 Y109.316 E.01742
G1 X141.68 Y108.763 E.01754
G1 X141.974 Y108.287 E.01754
G1 X142.43 Y107.964 E.01753
G1 X142.927 Y107.844 E.016
G1 X143.474 Y107.925 E.01735
G1 X143.953 Y108.215 E.01753
G1 X144.281 Y108.668 E.01754
G1 X144.406 Y109.213 E.01754
G1 X144.31 Y109.763 E.01754
G1 X144.043 Y110.195 E.01593
G1 X143.595 Y110.525 E.01742
G1 X143.052 Y110.656 E.01754
G1 X142.559 Y110.575 E.01565
M204 S1000
G1 X142.19 Y110.818 F10800
;WIPE_START
G1 F8640
G1 X142.027 Y110.266 E-.142
G1 X141.729 Y109.855 E-.1173
G1 X141.595 Y109.316 E-.12827
G1 X141.68 Y108.763 E-.12914
G1 X141.974 Y108.287 E-.12918
G1 X142.377 Y108.001 E-.1141
;WIPE_END
G1 E-.04 F2100
G1 Z.6 F720
G1 X144.62 Y75.521 F10800
G1 Z.2 F720
G1 E.8 F2100
M204 S800
;TYPE:Perimeter
G1 F1200
G1 X144.679 Y75.662 E.00479
;WIDTH:0.444317
G1 X144.799 Y76.25 E.02004
G1 X144.7 Y76.782 E.01807
;WIDTH:0.419999
G1 X144.622 Y76.981 E.0067
G1 X144.364 Y77.393 E.01523
G1 X144.209 Y77.555 E.00705
G1 X143.811 Y77.834 E.01523
G1 X143.605 Y77.924 E.00705
G1 X143.099 Y78.03 E.01622
G1 X142.75 Y77.997 E.01098
G1 X142.325 Y77.905 E.01364
G1 X141.891 Y77.629 E.01614
G1 X141.665 Y77.428 E.00948
G1 X141.417 Y77.065 E.0138
G1 X141.332 Y76.869 E.0067
G1 X141.222 Y76.372 E.01596
G1 X141.222 Y76.173 E.00624
G1 X141.309 Y75.695 E.01523
G1 X141.393 Y75.487 E.00705
G1 X141.659 Y75.08 E.01523
G1 X141.817 Y74.92 E.00705
G1 X142.221 Y74.65 E.01522
G1 X142.725 Y74.502 E.0165
G1 X143.062 Y74.472 E.0106
G1 X143.659 Y74.589 E.01908
G1 X144.156 Y74.897 E.01834
G1 X144.317 Y75.054 E.00705
G1 X144.597 Y75.466 E.0156
M204 S1000
G1 X144.281 Y75.668 F10800
M204 S800
;TYPE:External perimeter
G1 F1200
G1 X144.406 Y76.212 E.01753
G1 X144.329 Y76.714 E.01593
G1 X144.045 Y77.192 E.01743
G1 X143.595 Y77.525 E.01754
G1 X143.526 Y77.555 E.00235
G1 X142.99 Y77.659 E.01714
G1 X142.497 Y77.564 E.01573
G1 X142.027 Y77.266 E.01746
G1 X141.728 Y76.852 E.016
G1 X141.595 Y76.315 E.01735
G1 X141.68 Y75.763 E.01753
G1 X141.974 Y75.287 E.01754
G1 X142.43 Y74.964 E.01753
G1 X142.927 Y74.844 E.016
G1 X143.474 Y74.925 E.01735
G1 X143.953 Y75.215 E.01753
G1 X144.245 Y75.619 E.01565
M204 S1000
G1 X144.679 Y75.706 F10800
G1 X145.213 Y75.557
M204 S800
;TYPE:Perimeter
G1 F1200
G1 X145.213 Y75.608 E.0016
;WIDTH:0.444317
G1 X145.213 Y76.828 E.04072
;WIDTH:0.419999
G1 X145.213 Y108.608 E.99644
;WIDTH:0.448629
G1 X145.199 Y109.406 E.02693
G1 X145.213 Y110.221 E.02747
;WIDTH:0.419999
