; generated by PrusaSlicer 2.5.0+win64 on 2022-11-21 at 21:53:04 UTC

; 

; external perimeters extrusion width = 0.45mm
; perimeters extrusion width = 0.45mm
; infill extrusion width = 0.45mm
; solid infill extrusion width = 0.45mm
; top infill extrusion width = 0.40mm
; support material extrusion width = 0.35mm
; first layer extrusion width = 0.42mm

M73 P0 R104
M73 Q0 S105
M201 X1000 Y1000 Z200 E5000 ; sets maximum accelerations, mm/sec^2
M203 X200 Y200 Z12 E120 ; sets maximum feedrates, mm / sec
M204 P1250 R1250 T1250 ; sets acceleration (P, T) and retract acceleration (R), mm/sec^2
M205 X8.00 Y8.00 Z0.40 E4.50 ; sets the jerk limits, mm/sec
M205 S0 T0 ; sets the minimum extruding and travel feed rate, mm/sec
M107
;TYPE:Custom
M862.3 P "MK3S" ; printer model check
M862.1 P0.4 ; nozzle diameter check
M115 U3.10.1 ; tell printer latest fw version
G90 ; use absolute coordinates
M83 ; extruder relative mode
M104 S215 ; set extruder temp
M140 S60 ; set bed temp
M190 S60 ; wait for bed temp
M109 S215 ; wait for extruder temp
G28 W ; home all without mesh bed level
G80 ; mesh bed leveling
G1 Z0.2 F720
G1 Y-3 F1000 ; go outside print area
G92 E0
G1 X60 E9 F1000 ; intro line
G1 X100 E12.5 F1000 ; intro line
G92 E0
M221 S95

; Don't change E values below. Excessive value can damage the printer.
M907 E430 ; set extruder motor current
G21 ; set units to millimeters
G90 ; use absolute coordinates
M83 ; use relative distances for extrusion
M900 K0.05 ; Filament gcode LA 1.5
M900 K30 ; Filament gcode LA 1.0
M107
;LAYER_CHANGE
;Z:0.2
;HEIGHT:0.2
;BEFORE_LAYER_CHANGE
G92 E0.0
;0.2


G1 E-.8 F2100
M73 Q0 S104
G1 Z.4 F720
;AFTER_LAYER_CHANGE
;0.2
; printing object deauther-case-bottom.stl id:0 copy 0
G1 X110.8 Y74.843 F10800
G1 Z.2 F720
G1 E.8 F2100
M204 S800
;TYPE:Support material
;WIDTH:0.42
G1 F1200
G1 X108.586 Y77.234 E.10217
G1 X108.52 Y77.403 E.00569
G1 X108.52 Y80.135 E.08567
G1 X105.827 Y80.135 E.08445
G1 X105.827 Y71.92 E.25759
G1 X113.508 Y71.92 E.24085
G1 X110.839 Y74.802 E.12317
M204 S1000
G1 X112.431 Y72.833 F10800
M204 S800
G1 F1200
G1 X112.431 Y72.259 E.018
G1 X112.012 Y72.259 E.01314
G1 X112.012 Y73.036 E.02435
G1 X111.593 Y73.488 E.01933
G1 X111.593 Y72.259 E.03854
G1 X111.174 Y72.259 E.01314
G1 X111.174 Y73.941 E.05272
G1 X110.755 Y74.393 E.01933
G1 X110.755 Y72.259 E.0669
G1 X110.336 Y72.259 E.01314
G1 X110.336 Y74.845 E.08109
G1 X109.917 Y75.298 E.01933
G1 X109.917 Y72.259 E.09527
G1 X109.498 Y72.259 E.01314
G1 X109.498 Y75.75 E.10946
G1 X109.079 Y76.202 E.01933
G1 X109.079 Y72.259 E.12364
G1 X108.66 Y72.259 E.01314
G1 X108.66 Y76.655 E.13783
G1 X108.294 Y77.051 E.0169
G1 X108.241 Y77.185 E.00453
G1 X108.241 Y72.259 E.15445
G1 X107.822 Y72.259 E.01314
G1 X107.822 Y79.796 E.23631
G1 X107.403 Y79.796 E.01314
G1 X107.403 Y72.259 E.23631
G1 X106.984 Y72.259 E.01314
G1 X106.984 Y79.796 E.23631
G1 X106.565 Y79.796 E.01314
G1 X106.565 Y72.089 E.24163
M204 S1000
;WIPE_START
G1 F8640
G1 X106.565 Y75.381 E-.76
;WIPE_END
G1 E-.04 F2100
G1 Z.6 F720
G1 X144.173 Y80.135 F10800
G1 Z.2 F720
G1 E.8 F2100
M204 S800
G1 F1200
G1 X141.48 Y80.135 E.08445
G1 X141.48 Y77.403 E.08567
G1 X141.414 Y77.234 E.00569
G1 X136.492 Y71.92 E.2271
G1 X144.173 Y71.92 E.24084
G1 X144.173 Y80.079 E.25582
M204 S1000
G1 X143.435 Y79.965 F10800
M204 S800
G1 F1200
G1 X143.435 Y72.259 E.24163
G1 X143.016 Y72.259 E.01314
M73 P0 R103
G1 X143.016 Y79.796 E.23631
G1 X142.597 Y79.796 E.01314
G1 X142.597 Y72.259 E.23631
G1 X142.178 Y72.259 E.01314
G1 X142.178 Y79.796 E.23631
G1 X141.819 Y79.796 E.01125
G1 X141.819 Y77.339 E.07704
G1 X141.759 Y77.185 E.00518
G1 X141.759 Y72.259 E.15445
G1 X141.34 Y72.259 E.01314
G1 X141.34 Y76.655 E.13783
G1 X140.921 Y76.202 E.01933
G1 X140.921 Y72.259 E.12364
G1 X140.502 Y72.259 E.01314
G1 X140.502 Y75.75 E.10946
G1 X140.083 Y75.298 E.01933
G1 X140.083 Y72.259 E.09527
G1 X139.664 Y72.259 E.01314
G1 X139.664 Y74.845 E.08109
G1 X139.245 Y74.393 E.01933
G1 X139.245 Y72.259 E.0669
G1 X138.826 Y72.259 E.01314
G1 X138.826 Y73.94 E.05272
G1 X138.407 Y73.488 E.01933
G1 X138.407 Y72.259 E.03853
G1 X137.988 Y72.259 E.01314
G1 X137.988 Y73.036 E.02435
G1 X137.569 Y72.583 E.01933
G1 X137.569 Y72.089 E.01548
M204 S1000
;WIPE_START
G1 F8640
G1 X137.569 Y72.583 E-.11401
G1 X137.988 Y73.036 E-.14238
G1 X137.988 Y72.259 E-.17929
G1 X138.407 Y72.259 E-.09674
G1 X138.407 Y73.245 E-.22758
;WIPE_END
G1 E-.04 F2100
G1 Z.6 F720
G1 X139.72 Y146.305 F10800
G1 Z.2 F720
G1 E.8 F2100
M204 S800
G1 F1200
G1 X110.28 Y146.305 E.92307
G1 X110.28 Y77.065 E2.17097
G1 X139.72 Y77.065 E.92307
G1 X139.72 Y146.248 E2.1692
M204 S1000
;WIPE_START
G1 F8640
G1 X139.72 Y142.957 E-.76
;WIPE_END
G1 E-.04 F2100
G1 Z.6 F720
G1 X137.981 Y77.405 F10800
G1 Z.2 F720
G1 E.8 F2100
M204 S800
G1 F1200
G1 X137.708 Y77.436 E.00864
G1 X137.454 Y77.517 E.00835
G1 X137.213 Y77.651 E.00864
G1 X137.003 Y77.83 E.00865
G1 X136.834 Y78.047 E.00864
G1 X136.725 Y78.258 E.00743
G1 X136.647 Y78.515 E.00843
G1 X136.62 Y78.79 E.00865
G1 X136.649 Y79.064 E.00865
G1 X136.731 Y79.327 E.00864
G1 X136.864 Y79.568 E.00864
G1 X137.036 Y79.772 E.00835
G1 X137.251 Y79.944 E.00864
G1 X137.496 Y80.07 E.00864
G1 X137.724 Y80.137 E.00743
G1 X137.991 Y80.165 E.00843
G1 X138.266 Y80.139 E.00865
G1 X138.52 Y80.063 E.00834
G1 X138.764 Y79.934 E.00864
G1 X138.977 Y79.759 E.00865
G1 X139.151 Y79.546 E.00864
G1 X139.28 Y79.301 E.00864
G1 X139.349 Y79.075 E.00743
G1 X139.38 Y78.808 E.00844
G1 X139.357 Y78.533 E.00864
G1 X139.283 Y78.277 E.00835
G1 X139.157 Y78.032 E.00864
G1 X138.984 Y77.817 E.00865
G1 X138.804 Y77.663 E.00743
G1 X138.571 Y77.529 E.00843
G1 X138.31 Y77.44 E.00865
G1 X138.038 Y77.405 E.0086
M204 S1000
G1 X111.981 Y77.405 F10800
M204 S800
G1 F1200
G1 X111.717 Y77.434 E.00835
G1 X111.454 Y77.517 E.00865
G1 X111.213 Y77.651 E.00864
G1 X111.003 Y77.83 E.00865
G1 X110.834 Y78.047 E.00864
G1 X110.727 Y78.252 E.00722
G1 X110.647 Y78.515 E.00864
G1 X110.62 Y78.79 E.00865
G1 X110.649 Y79.064 E.00865
G1 X110.731 Y79.327 E.00863
G1 X110.859 Y79.56 E.00835
G1 X111.036 Y79.772 E.00865
G1 X111.251 Y79.944 E.00864
G1 X111.496 Y80.07 E.00864
G1 X111.717 Y80.136 E.00722
G1 X111.991 Y80.165 E.00864
G1 X112.256 Y80.141 E.00835
G1 X112.52 Y80.063 E.00864
G1 X112.764 Y79.934 E.00864
G1 X112.977 Y79.759 E.00865
G1 X113.151 Y79.546 E.00864
G1 X113.28 Y79.301 E.00865
G1 X113.357 Y79.037 E.00864
G1 X113.38 Y78.808 E.00722
G1 X113.357 Y78.533 E.00864
G1 X113.283 Y78.277 E.00834
G1 X113.157 Y78.032 E.00864
G1 X112.984 Y77.817 E.00865
G1 X112.804 Y77.663 E.00743
G1 X112.571 Y77.529 E.00843
G1 X112.31 Y77.44 E.00865
G1 X112.038 Y77.405 E.0086
M204 S1000
;WIPE_START
G1 F8640
G1 X112.31 Y77.44 E-.06332
G1 X112.571 Y77.529 E-.06367
G1 X112.804 Y77.663 E-.0621
G1 X112.984 Y77.817 E-.05472
G1 X113.157 Y78.032 E-.06367
G1 X113.283 Y78.277 E-.06364
G1 X113.357 Y78.533 E-.06145
G1 X113.38 Y78.808 E-.06366
G1 X113.357 Y79.037 E-.05317
G1 X113.28 Y79.301 E-.06365
G1 X113.151 Y79.546 E-.06367
G1 X112.977 Y79.759 E-.06364
G1 X112.912 Y79.813 E-.01965
;WIPE_END
G1 E-.04 F2100
G1 Z.6 F720
G1 X139.245 Y146.135 F10800
G1 Z.2 F720
G1 E.8 F2100
M204 S800
G1 F1200
G1 X139.245 Y79.97 E2.07456
G1 X139.062 Y80.137 E.00778
G1 X138.826 Y80.293 E.00885
G1 X138.826 Y145.966 E2.05913
G1 X138.407 Y145.966 E.01314
G1 X138.407 Y80.455 E2.05403
G1 X138.197 Y80.493 E.0067
G1 X137.988 Y80.504 E.00655
G1 X137.988 Y145.966 E2.05249
G1 X137.569 Y145.966 E.01314
G1 X137.569 Y80.449 E2.05421
G1 X137.37 Y80.385 E.00656
G1 X137.15 Y80.279 E.00765
G1 X137.15 Y145.966 E2.05954
G1 X136.731 Y145.966 E.01314
G1 X136.731 Y79.675 E2.0785
M204 S1000
;WIPE_START
G1 F8640
G1 X136.731 Y82.966 E-.76
;WIPE_END
G1 E-.04 F2100
G1 Z.6 F720
G1 X139.245 Y77.863 F10800
G1 Z.2 F720
G1 E.8 F2100
M204 S800
G1 F1200
G1 X139.245 Y77.235 E.01969
M204 S1000
G1 X136.731 Y77.895 F10800
M204 S800
G1 F1200
G1 X136.731 Y77.404 E.01539
G1 X136.312 Y77.404 E.01314
G1 X136.312 Y145.966 E2.14969
G1 X135.893 Y145.966 E.01314
G1 X135.893 Y77.404 E2.14969
G1 X135.474 Y77.404 E.01314
M73 Q1 S104
G1 X135.474 Y145.966 E2.14969
G1 X135.055 Y145.966 E.01314
M73 P1 R103
M73 Q1 S103
G1 X135.055 Y77.404 E2.14969
G1 X134.636 Y77.404 E.01314
G1 X134.636 Y145.966 E2.14969
G1 X134.217 Y145.966 E.01314
G1 X134.217 Y77.404 E2.14969
G1 X133.799 Y77.404 E.01314
M73 P1 R102
G1 X133.799 Y145.966 E2.14969
G1 X133.38 Y145.966 E.01314
G1 X133.38 Y77.404 E2.14969
G1 X132.961 Y77.404 E.01314
G1 X132.961 Y145.966 E2.14969
G1 X132.542 Y145.966 E.01314
G1 X132.542 Y77.404 E2.14969
G1 X132.123 Y77.404 E.01314
G1 X132.123 Y145.966 E2.14969
G1 X131.704 Y145.966 E.01314
G1 X131.704 Y77.404 E2.14969
G1 X131.285 Y77.404 E.01314
G1 X131.285 Y145.966 E2.14969
G1 X130.866 Y145.966 E.01314
G1 X130.866 Y77.404 E2.14969
G1 X130.447 Y77.404 E.01314
G1 X130.447 Y145.966 E2.14969
G1 X130.028 Y145.966 E.01314
G1 X130.028 Y77.404 E2.14969
G1 X129.609 Y77.404 E.01314
G1 X129.609 Y145.966 E2.14969
G1 X129.19 Y145.966 E.01314
G1 X129.19 Y77.404 E2.14969
G1 X128.771 Y77.404 E.01314
G1 X128.771 Y145.966 E2.14969
G1 X128.352 Y145.966 E.01314
G1 X128.352 Y77.404 E2.14969
G1 X127.933 Y77.404 E.01314
M73 Q1 S102
G1 X127.933 Y145.966 E2.14969
G1 X127.514 Y145.966 E.01314
M73 P2 R102
M73 Q2 S102
G1 X127.514 Y77.404 E2.14969
G1 X127.095 Y77.404 E.01314
G1 X127.095 Y145.966 E2.14969
G1 X126.676 Y145.966 E.01314
M73 P2 R101
G1 X126.676 Y77.404 E2.14969
G1 X126.257 Y77.404 E.01314
G1 X126.257 Y145.966 E2.14969
G1 X125.838 Y145.966 E.01314
G1 X125.838 Y77.404 E2.14969
G1 X125.419 Y77.404 E.01314
G1 X125.419 Y145.966 E2.14969
G1 X125 Y145.966 E.01314
G1 X125 Y77.404 E2.14969
G1 X124.581 Y77.404 E.01314
G1 X124.581 Y145.966 E2.14969
G1 X124.162 Y145.966 E.01314
G1 X124.162 Y77.404 E2.14969
G1 X123.743 Y77.404 E.01314
G1 X123.743 Y145.966 E2.14969
G1 X123.324 Y145.966 E.01314
G1 X123.324 Y77.404 E2.14969
G1 X122.905 Y77.404 E.01314
G1 X122.905 Y145.966 E2.14969
G1 X122.486 Y145.966 E.01314
G1 X122.486 Y77.404 E2.14969
G1 X122.067 Y77.404 E.01314
G1 X122.067 Y145.966 E2.14969
G1 X121.648 Y145.966 E.01314
G1 X121.648 Y77.404 E2.14969
G1 X121.229 Y77.404 E.01314
G1 X121.229 Y145.966 E2.14969
G1 X120.81 Y145.966 E.01314
M73 Q2 S101
G1 X120.81 Y77.404 E2.14969
G1 X120.391 Y77.404 E.01314
G1 X120.391 Y145.966 E2.14969
G1 X119.972 Y145.966 E.01314
M73 P3 R101
M73 Q3 S101
G1 X119.972 Y77.404 E2.14969
G1 X119.553 Y77.404 E.01314
G1 X119.553 Y145.966 E2.14969
G1 X119.134 Y145.966 E.01314
M73 P3 R100
G1 X119.134 Y77.404 E2.14969
G1 X118.715 Y77.404 E.01314
G1 X118.715 Y145.966 E2.14969
G1 X118.296 Y145.966 E.01314
G1 X118.296 Y77.404 E2.14969
G1 X117.877 Y77.404 E.01314
G1 X117.877 Y145.966 E2.14969
G1 X117.458 Y145.966 E.01314
G1 X117.458 Y77.404 E2.14969
G1 X117.039 Y77.404 E.01314
G1 X117.039 Y145.966 E2.14969
G1 X116.62 Y145.966 E.01314
G1 X116.62 Y77.404 E2.14969
G1 X116.201 Y77.404 E.01314
G1 X116.201 Y145.966 E2.14969
G1 X115.783 Y145.966 E.01314
G1 X115.783 Y77.404 E2.14969
G1 X115.364 Y77.404 E.01314
G1 X115.364 Y145.966 E2.14969
G1 X114.945 Y145.966 E.01314
G1 X114.945 Y77.404 E2.14969
G1 X114.526 Y77.404 E.01314
G1 X114.526 Y145.966 E2.14969
G1 X114.107 Y145.966 E.01314
G1 X114.107 Y77.404 E2.14969
G1 X113.688 Y77.404 E.01314
G1 X113.688 Y145.966 E2.14969
G1 X113.269 Y145.966 E.01314
M73 Q3 S100
G1 X113.269 Y79.945 E2.07001
G1 X113.075 Y80.127 E.00833
G1 X112.85 Y80.28 E.00852
G1 X112.85 Y145.966 E2.05954
G1 X112.431 Y145.966 E.01314
M73 P4 R100
M73 Q4 S100
G1 X112.431 Y80.449 E2.05422
G1 X112.249 Y80.486 E.00581
M73 P4 R99
G1 X112.012 Y80.504 E.00746
G1 X112.012 Y145.966 E2.0525
G1 X111.593 Y145.966 E.01314
G1 X111.593 Y80.455 E2.05403
G1 X111.386 Y80.391 E.0068
G1 X111.174 Y80.293 E.00732
G1 X111.174 Y145.966 E2.05913
G1 X110.755 Y145.966 E.01314
G1 X110.755 Y79.707 E2.07748
M204 S1000
;WIPE_START
G1 F8640
G1 X110.755 Y82.999 E-.76
;WIPE_END
G1 E-.04 F2100
G1 Z.6 F720
G1 X113.269 Y77.895 F10800
G1 Z.2 F720
G1 E.8 F2100
M204 S800
G1 F1200
G1 X113.269 Y77.235 E.02071
M204 S1000
G1 X110.755 Y77.862 F10800
M204 S800
G1 F1200
G1 X110.755 Y77.235 E.01969
M204 S1000
;WIPE_START
G1 F8640
G1 X110.755 Y77.862 E-.14497
;WIPE_END
G1 E-.65503 F2100
G1 Z.6 F720
G1 X144.173 Y151.987 F10800
G1 Z.2 F720
G1 E.8 F2100
M204 S800
G1 F1200
G1 X105.827 Y151.987 E1.20234
G1 X105.827 Y146.752 E.16416
G1 X106.141 Y146.96 E.01183
G1 X106.515 Y147.169 E.01345
G1 X106.905 Y147.349 E.01345
G1 X107.296 Y147.493 E.01306
G1 X107.937 Y147.661 E.02079
G1 X108.354 Y147.727 E.01321
G1 X108.79 Y147.761 E.01374
G1 X141.002 Y147.765 E1.00998
G1 X141.433 Y147.748 E.01351
G1 X141.859 Y147.697 E.01345
G1 X142.28 Y147.613 E.01345
G1 X142.692 Y147.497 E.01344
G1 X143.095 Y147.349 E.01345
G1 X143.484 Y147.169 E.01345
G1 X143.859 Y146.96 E.01345
G1 X144.173 Y146.752 E.01183
G1 X144.173 Y151.931 E.16238
M204 S1000
G1 X143.435 Y151.818 F10800
M204 S800
G1 F1200
G1 X143.435 Y147.57 E.13317
G1 X143.016 Y147.744 E.01422
G1 X143.016 Y151.648 E.12241
G1 X142.597 Y151.648 E.01314
G1 X142.597 Y147.881 E.11812
G1 X142.178 Y147.983 E.01352
G1 X142.178 Y151.648 E.1149
G1 X141.759 Y151.648 E.01314
G1 X141.759 Y148.054 E.11269
G1 X141.34 Y148.093 E.0132
G1 X141.34 Y151.648 E.11145
G1 X140.921 Y151.648 E.01314
G1 X140.921 Y148.104 E.11111
G1 X140.502 Y148.104 E.01314
G1 X140.502 Y151.648 E.11111
G1 X140.083 Y151.648 E.01314
G1 X140.083 Y148.104 E.11111
G1 X139.664 Y148.104 E.01314
G1 X139.664 Y151.648 E.11111
G1 X139.245 Y151.648 E.01314
G1 X139.245 Y148.104 E.11111
G1 X138.826 Y148.104 E.01314
G1 X138.826 Y151.648 E.11111
G1 X138.407 Y151.648 E.01314
G1 X138.407 Y148.104 E.11111
G1 X137.988 Y148.104 E.01314
G1 X137.988 Y151.648 E.11111
G1 X137.569 Y151.648 E.01314
G1 X137.569 Y148.104 E.11111
G1 X137.15 Y148.104 E.01314
G1 X137.15 Y151.648 E.11111
G1 X136.731 Y151.648 E.01314
G1 X136.731 Y148.104 E.11111
G1 X136.312 Y148.104 E.01314
G1 X136.312 Y151.648 E.11111
G1 X135.893 Y151.648 E.01314
G1 X135.893 Y148.104 E.11111
G1 X135.474 Y148.104 E.01314
G1 X135.474 Y151.648 E.11111
G1 X135.055 Y151.648 E.01314
G1 X135.055 Y148.104 E.11111
G1 X134.636 Y148.104 E.01314
G1 X134.636 Y151.648 E.11111
G1 X134.217 Y151.648 E.01314
G1 X134.217 Y148.104 E.11111
G1 X133.799 Y148.104 E.01314
G1 X133.799 Y151.648 E.11111
G1 X133.38 Y151.648 E.01314
G1 X133.38 Y148.104 E.11111
G1 X132.961 Y148.104 E.01314
G1 X132.961 Y151.648 E.11111
G1 X132.542 Y151.648 E.01314
G1 X132.542 Y148.104 E.11111
G1 X132.123 Y148.104 E.01314
G1 X132.123 Y151.648 E.11111
G1 X131.704 Y151.648 E.01314
G1 X131.704 Y148.104 E.11111
G1 X131.285 Y148.104 E.01314
G1 X131.285 Y151.648 E.11111
G1 X130.866 Y151.648 E.01314
G1 X130.866 Y148.104 E.11111
G1 X130.447 Y148.104 E.01314
G1 X130.447 Y151.648 E.11111
G1 X130.028 Y151.648 E.01314
G1 X130.028 Y148.104 E.11111
G1 X129.609 Y148.104 E.01314
G1 X129.609 Y151.648 E.11111
G1 X129.19 Y151.648 E.01314
G1 X129.19 Y148.104 E.11111
G1 X128.771 Y148.104 E.01314
G1 X128.771 Y151.648 E.11111
G1 X128.352 Y151.648 E.01314
G1 X128.352 Y148.104 E.11111
G1 X127.933 Y148.104 E.01314
G1 X127.933 Y151.648 E.11111
G1 X127.514 Y151.648 E.01314
G1 X127.514 Y148.104 E.11111
G1 X127.095 Y148.104 E.01314
G1 X127.095 Y151.648 E.11111
G1 X126.676 Y151.648 E.01314
G1 X126.676 Y148.104 E.11111
G1 X126.257 Y148.104 E.01314
G1 X126.257 Y151.648 E.11111
G1 X125.838 Y151.648 E.01314
G1 X125.838 Y148.104 E.11111
G1 X125.419 Y148.104 E.01314
G1 X125.419 Y151.648 E.11111
G1 X125 Y151.648 E.01314
G1 X125 Y148.104 E.11111
G1 X124.581 Y148.104 E.01314
G1 X124.581 Y151.648 E.11111
G1 X124.162 Y151.648 E.01314
G1 X124.162 Y148.104 E.11111
G1 X123.743 Y148.104 E.01314
G1 X123.743 Y151.648 E.11111
G1 X123.324 Y151.648 E.01314
G1 X123.324 Y148.104 E.11111
G1 X122.905 Y148.104 E.01314
G1 X122.905 Y151.648 E.11111
G1 X122.486 Y151.648 E.01314
G1 X122.486 Y148.104 E.11111
G1 X122.067 Y148.104 E.01314
G1 X122.067 Y151.648 E.11111
G1 X121.648 Y151.648 E.01314
G1 X121.648 Y148.104 E.11111
G1 X121.229 Y148.104 E.01314
G1 X121.229 Y151.648 E.11111
G1 X120.81 Y151.648 E.01314
G1 X120.81 Y148.104 E.11111
G1 X120.391 Y148.104 E.01314
G1 X120.391 Y151.648 E.11111
G1 X119.972 Y151.648 E.01314
G1 X119.972 Y148.104 E.11111
G1 X119.553 Y148.104 E.01314
