; generated by PrusaSlicer 2.5.0+win64 on 2022-11-21 at 09:29:54 UTC

; 

; external perimeters extrusion width = 0.45mm
; perimeters extrusion width = 0.45mm
; infill extrusion width = 0.45mm
; solid infill extrusion width = 0.45mm
; top infill extrusion width = 0.40mm
; support material extrusion width = 0.35mm
; first layer extrusion width = 0.42mm

M73 P0 R7
M73 Q0 S7
M201 X1000 Y1000 Z200 E5000 ; sets maximum accelerations, mm/sec^2
M203 X200 Y200 Z12 E120 ; sets maximum feedrates, mm / sec
M204 P1250 R1250 T1250 ; sets acceleration (P, T) and retract acceleration (R), mm/sec^2
M205 X8.00 Y8.00 Z0.40 E4.50 ; sets the jerk limits, mm/sec
M205 S0 T0 ; sets the minimum extruding and travel feed rate, mm/sec
M107
;TYPE:Custom
M862.3 P "MK3S" ; printer model check
M862.1 P0.4 ; nozzle diameter check
M115 U3.10.1 ; tell printer latest fw version
G90 ; use absolute coordinates
M83 ; extruder relative mode
M104 S215 ; set extruder temp
M140 S60 ; set bed temp
M190 S60 ; wait for bed temp
M109 S215 ; wait for extruder temp
G28 W ; home all without mesh bed level
G80 ; mesh bed leveling
G1 Z0.2 F720
G1 Y-3 F1000 ; go outside print area
G92 E0
G1 X60 E9 F1000 ; intro line
G1 X100 E12.5 F1000 ; intro line
G92 E0
M221 S95

; Don't change E values below. Excessive value can damage the printer.
M907 E430 ; set extruder motor current
G21 ; set units to millimeters
G90 ; use absolute coordinates
M83 ; use relative distances for extrusion
M900 K0.05 ; Filament gcode LA 1.5
M900 K30 ; Filament gcode LA 1.0
M107
;LAYER_CHANGE
;Z:0.2
;HEIGHT:0.2
;BEFORE_LAYER_CHANGE
G92 E0.0
;0.2


G1 E-.8 F2100
M73 P1 R7
M73 Q1 S7
G1 Z.4 F720
;AFTER_LAYER_CHANGE
;0.2
; printing object deauther-case-display-support.stl id:0 copy 0
G1 X112.533 Y115.413 F10800
G1 Z.2 F720
G1 E.8 F2100
M204 S800
;TYPE:Perimeter
;WIDTH:0.45028
G1 F1200
G1 X112.579 Y115.492 E.00308
;WIDTH:0.419999
G1 X114.508 Y117.421 E.08557
;WIDTH:0.444381
G1 X114.908 Y117.599 E.01461
G1 X135.092 Y117.599 E.67376
;WIDTH:0.45028
G1 X135.192 Y117.593 E.0034
G1 X135.492 Y117.421 E.0117
;WIDTH:0.419999
G1 X137.421 Y115.492 E.08557
;WIDTH:0.450279
G1 X137.593 Y115.192 E.0117
G1 X137.599 Y115.092 E.0034
;WIDTH:0.444381
G1 X137.599 Y96.108 E.6337
G1 X137.421 Y95.708 E.01461
;WIDTH:0.419999
M73 P2 R7
M73 Q2 S7
G1 X134.292 Y92.579 E.13878
;WIDTH:0.444381
G1 X133.892 Y92.401 E.01461
G1 X131.599 Y92.401 E.07653
G1 X131.599 Y91.999 E.0134
G1 X134.537 Y91.987 E.09806
;WIDTH:0.419999
G1 X138.013 Y91.987 E.10899
G1 X138.013 Y93.25 E.03961
G1 X138.013 Y95.463 E.06939
;WIDTH:0.444381
G1 X138.001 Y115.092 E.65523
;WIDTH:0.450279
G1 X138.013 Y115.737 E.02185
;WIDTH:0.419999
G1 X138.013 Y118.013 E.07137
G1 X135.737 Y118.013 E.07137
;WIDTH:0.444381
G1 X114.263 Y118.013 E.71682
;WIDTH:0.419999
G1 X111.987 Y118.013 E.07137
G1 X111.987 Y115.737 E.07137
;WIDTH:0.444381
G1 X111.987 Y95.463 E.67676
;WIDTH:0.419999
G1 X111.987 Y91.987 E.10899
M73 P3 R7
M73 Q3 S7
G1 X115.463 Y91.987 E.10899
;WIDTH:0.444381
G1 X118.401 Y91.999 E.09806
G1 X118.401 Y92.401 E.0134
G1 X116.108 Y92.401 E.07653
;WIDTH:0.45028
G1 X116.008 Y92.407 E.0034
G1 X115.708 Y92.579 E.0117
;WIDTH:0.419999
G1 X112.579 Y95.708 E.13878
;WIDTH:0.444381
G1 X112.401 Y96.108 E.01461
G1 X112.401 Y115.092 E.6337
;WIDTH:0.45028
G1 X112.407 Y115.192 E.0034
G1 X112.503 Y115.361 E.00659
M204 S1000
G1 X112.845 Y115.225 F10800
M204 S800
;TYPE:External perimeter
;WIDTH:0.419999
G1 F1200
G1 X114.775 Y117.155 E.08557
G1 X114.908 Y117.21 E.00452
G1 X135.092 Y117.21 E.63284
G1 X135.225 Y117.155 E.00452
G1 X137.155 Y115.225 E.08557
G1 X137.21 Y115.092 E.00452
G1 X137.21 Y96.108 E.59521
G1 X137.155 Y95.975 E.00452
G1 X134.025 Y92.845 E.13878
G1 X133.892 Y92.79 E.00452
M73 Q4 S7
G1 X131.21 Y92.79 E.08408
G1 X131.21 Y91.61 E.037
M73 P4 R7
G1 X138.39 Y91.61 E.22512
G1 X138.39 Y118.39 E.83967
G1 X111.61 Y118.39 E.83967
G1 X111.61 Y91.61 E.83967
G1 X118.79 Y91.61 E.22512
M73 Q5 S7
G1 X118.79 Y92.79 E.037
M73 P5 R7
G1 X116.108 Y92.79 E.08408
G1 X115.975 Y92.845 E.00452
G1 X112.845 Y95.975 E.13878
G1 X112.79 Y96.108 E.00452
G1 X112.79 Y115.092 E.59521
G1 X112.822 Y115.17 E.00264
M204 S1000
G1 X112.646 Y115.572 F10800
;WIPE_START
G1 F8640
G1 X114.775 Y117.155 E-.64297
G1 X114.908 Y117.21 E-.03332
G1 X115.271 Y117.21 E-.08371
;WIPE_END
G1 E-.04 F2100
G1 Z.6 F720
G1 X112.1 Y115.895 F10800
G1 Z.2 F720
G1 E.8 F2100
M204 S800
;TYPE:Solid infill
;WIDTH:0.455671
G1 F1200
G1 X113.936 Y117.73 E.08909
G1 X113.352 Y117.73 E.02003
G1 X112.27 Y116.648 E.05252
G1 X112.27 Y117.232 E.02003
G1 X112.938 Y117.9 E.03243
M204 S1000
;WIPE_START
G1 F8640
G1 X112.27 Y117.232 E-.21817
G1 X112.27 Y116.648 E-.13478
G1 X113.352 Y117.73 E-.35337
G1 X113.584 Y117.73 E-.05367
;WIPE_END
G1 E-.04 F2100
G1 Z.6 F720
G1 X137.9 Y116.255 F10800
G1 Z.2 F720
G1 E.8 F2100
M204 S800
;WIDTH:0.430636
G1 F1200
G1 X137.479 Y115.834 E.01919
G1 X137.205 Y116.108 E.0125
G1 X137.73 Y116.634 E.02395
G1 X137.73 Y117.182 E.01768
G1 X136.931 Y116.382 E.03645
G1 X136.656 Y116.657 E.0125
G1 X137.73 Y117.73 E.04895
G1 X137.182 Y117.73 E.01768
G1 X136.382 Y116.931 E.03645
G1 X136.108 Y117.205 E.0125
G1 X136.633 Y117.73 E.02395
G1 X136.085 Y117.73 E.01768
G1 X135.714 Y117.359 E.01692
M204 S1000
;WIPE_START
G1 F8640
G1 X136.085 Y117.73 E-.12118
G1 X136.633 Y117.73 E-.12661
G1 X136.108 Y117.205 E-.17153
G1 X136.382 Y116.931 E-.08952
G1 X137.151 Y117.7 E-.25116
;WIPE_END
G1 E-.04 F2100
G1 Z.6 F720
G1 X137.055 Y92.1 F10800
G1 Z.2 F720
G1 E.8 F2100
M204 S800
;WIDTH:0.45896
G1 F1200
G1 X137.73 Y92.775 E.03303
G1 X137.73 Y93.364 E.02035
G1 X136.636 Y92.27 E.05352
G1 X136.048 Y92.27 E.02035
M73 Q6 S7
G1 X137.73 Y93.952 E.0823
G1 X137.73 Y94.541 E.02035
M73 P6 R7
G1 X135.459 Y92.27 E.11109
G1 X134.871 Y92.27 E.02035
G1 X137.9 Y95.299 E.14817
M204 S1000
;WIPE_START
G1 F8640
G1 X135.572 Y92.971 E-.76
;WIPE_END
G1 E-.04 F2100
G1 Z.6 F720
G1 X114.917 Y92.1 F10800
G1 Z.2 F720
G1 E.8 F2100
M204 S800
;WIDTH:0.44409
G1 F1200
G1 X115.352 Y92.535 E.02053
G1 X115.068 Y92.819 E.01338
G1 X114.519 Y92.27 E.0259
G1 X113.952 Y92.27 E.01892
G1 X114.784 Y93.103 E.03929
G1 X114.501 Y93.386 E.01338
G1 X113.384 Y92.27 E.05267
G1 X112.817 Y92.27 E.01892
G1 X114.217 Y93.67 E.06605
G1 X113.933 Y93.954 E.01338
G1 X112.27 Y92.29 E.07847
G1 X112.27 Y92.858 E.01893
G1 X113.65 Y94.237 E.06509
G1 X113.366 Y94.521 E.01338
G1 X112.27 Y93.425 E.05171
G1 X112.27 Y93.992 E.01892
G1 X113.082 Y94.805 E.03833
G1 X112.799 Y95.088 E.01338
G1 X112.27 Y94.56 E.02494
G1 X112.27 Y95.127 E.01892
G1 X112.635 Y95.492 E.01722
M204 S1000
; stop printing object deauther-case-display-support.stl id:0 copy 0
M106 S84.15
;LAYER_CHANGE
;Z:0.35
;HEIGHT:0.15
;BEFORE_LAYER_CHANGE
G92 E0.0
;0.35


;WIPE_START
G1 F8640
G1 X112.27 Y95.127 E-.11921
G1 X112.27 Y94.56 E-.131
G1 X112.799 Y95.088 E-.17266
G1 X113.082 Y94.805 E-.09263
G1 X112.334 Y94.056 E-.24449
;WIPE_END
G1 E-.04 F2100
G1 Z.6 F720
;AFTER_LAYER_CHANGE
;0.35
; printing object deauther-case-display-support.stl id:0 copy 0
G1 X112.691 Y95.836 F10800
G1 Z.35 F720
G1 E.8 F2100
M204 S800
;TYPE:Perimeter
;WIDTH:0.499428
G1 F2085
G1 X112.655 Y95.898 E.00208
;WIDTH:0.548857
G1 X112.569 Y96.046 E.00551
;WIDTH:0.598286
G1 X112.483 Y96.193 E.00603
G1 X112.483 Y115.007 E.66417
;WIDTH:0.605741
G1 X112.49 Y115.128 E.00436
G1 X112.553 Y115.209 E.00365
;WIDTH:0.566806
G1 X112.615 Y115.289 E.0034
;WIDTH:0.52787
G1 X112.678 Y115.369 E.00315
;WIDTH:0.488935
G1 X112.741 Y115.45 E.0029
;WIDTH:0.449999
G1 X114.55 Y117.259 E.06667
;WIDTH:0.499428
G1 X114.698 Y117.345 E.00498
;WIDTH:0.548857
G1 X114.846 Y117.431 E.00551
;WIDTH:0.598286
G1 X114.993 Y117.517 E.00603
G1 X135.007 Y117.517 E.70654
;WIDTH:0.605741
G1 X135.128 Y117.51 E.00436
G1 X135.209 Y117.447 E.00365
;WIDTH:0.566806
G1 X135.289 Y117.385 E.0034
;WIDTH:0.52787
G1 X135.369 Y117.322 E.00315
;WIDTH:0.488935
G1 X135.45 Y117.259 E.0029
;WIDTH:0.449999
G1 X137.259 Y115.45 E.06667
;WIDTH:0.488935
G1 X137.322 Y115.369 E.0029
;WIDTH:0.52787
G1 X137.385 Y115.289 E.00315
;WIDTH:0.566805
G1 X137.447 Y115.209 E.0034
;WIDTH:0.60574
G1 X137.51 Y115.128 E.00365
G1 X137.517 Y115.007 E.00436
;WIDTH:0.598286
G1 X137.517 Y96.193 E.66417
G1 X137.431 Y96.046 E.00603
;WIDTH:0.548857
M73 Q7 S7
G1 X137.345 Y95.898 E.00551
;WIDTH:0.499428
G1 X137.259 Y95.75 E.00498
;WIDTH:0.449999
G1 X134.25 Y92.741 E.11089
;WIDTH:0.499428
G1 X134.102 Y92.655 E.00498
;WIDTH:0.548857
M73 P7 R7
G1 X133.954 Y92.569 E.00551
;WIDTH:0.598286
G1 X133.807 Y92.483 E.00603
G1 X131.517 Y92.483 E.08083
G1 X131.517 Y91.917 E.01999
G1 X133.807 Y91.917 E.08083
G1 X134.078 Y91.892 E.00963
;WIDTH:0.548857
G1 X134.35 Y91.868 E.00879
;WIDTH:0.499428
G1 X134.622 Y91.843 E.00795
;WIDTH:0.449999
G1 X138.157 Y91.843 E.09212
G1 X138.157 Y93.25 E.03667
G1 X138.157 Y95.378 E.05545
;WIDTH:0.499428
G1 X138.132 Y95.65 E.00795
;WIDTH:0.548857
G1 X138.108 Y95.922 E.00879
;WIDTH:0.598286
G1 X138.083 Y96.193 E.00963
G1 X138.083 Y115.007 E.66417
;WIDTH:0.60574
G1 X138.099 Y115.339 E.0119
;WIDTH:0.566805
G1 X138.118 Y115.5 E.00541
;WIDTH:0.52787
G1 X138.138 Y115.661 E.00501
;WIDTH:0.488935
G1 X138.157 Y115.822 E.00462
;WIDTH:0.449999
G1 X138.157 Y118.157 E.06085
G1 X135.822 Y118.157 E.06085
;WIDTH:0.499428
G1 X135.55 Y118.132 E.00795
;WIDTH:0.548857
G1 X135.278 Y118.108 E.00879
;WIDTH:0.598286
G1 X135.007 Y118.083 E.00963
G1 X114.993 Y118.083 E.70654
G1 X114.722 Y118.108 E.00963
;WIDTH:0.548857
G1 X114.45 Y118.132 E.00879
;WIDTH:0.499428
G1 X114.178 Y118.157 E.00795
;WIDTH:0.449999
G1 X111.843 Y118.157 E.06085
G1 X111.843 Y115.822 E.06085
;WIDTH:0.499428
G1 X111.868 Y115.55 E.00795
;WIDTH:0.548857
G1 X111.892 Y115.278 E.00879
;WIDTH:0.598286
G1 X111.917 Y115.007 E.00963
G1 X111.917 Y96.193 E.66417
G1 X111.892 Y95.922 E.00963
;WIDTH:0.548857
G1 X111.868 Y95.65 E.00879
;WIDTH:0.499428
G1 X111.843 Y95.378 E.00795
;WIDTH:0.449999
G1 X111.843 Y91.843 E.09212
G1 X115.378 Y91.843 E.09212
;WIDTH:0.499428
G1 X115.65 Y91.868 E.00795
;WIDTH:0.548857
G1 X115.922 Y91.892 E.00879
;WIDTH:0.598286
G1 X116.193 Y91.917 E.00963
G1 X118.483 Y91.917 E.08083
G1 X118.483 Y92.483 E.01999
G1 X116.193 Y92.483 E.08083
;WIDTH:0.605741
G1 X116.072 Y92.49 E.00436
G1 X115.991 Y92.553 E.00365
;WIDTH:0.566806
G1 X115.911 Y92.615 E.0034
;WIDTH:0.52787
G1 X115.831 Y92.678 E.00315
;WIDTH:0.488935
G1 X115.75 Y92.741 E.0029
;WIDTH:0.449999
G1 X112.741 Y95.75 E.11089
;WIDTH:0.499428
G1 X112.721 Y95.784 E.00115
M204 S1000
G1 X113.036 Y96.046 F10800
M204 S800
;TYPE:External perimeter
;WIDTH:0.449999
G1 F1500
G1 X112.975 Y96.193 E.00417
G1 X112.975 Y115.007 E.49019
G1 X113.036 Y115.154 E.00417
G1 X114.846 Y116.964 E.06667
G1 X114.993 Y117.025 E.00417
G1 X135.007 Y117.025 E.52146
G1 X135.154 Y116.964 E.00417
M73 P8 R7
M73 Q8 S7
G1 X136.964 Y115.154 E.06667
G1 X137.025 Y115.007 E.00417
G1 X137.025 Y96.193 E.49019
G1 X136.964 Y96.046 E.00417
G1 X133.954 Y93.036 E.11089
G1 X133.807 Y92.975 E.00417
G1 X131.025 Y92.975 E.07248
G1 X131.025 Y91.425 E.04039
G1 X138.575 Y91.425 E.19672
G1 X138.575 Y118.575 E.70741
G1 X111.425 Y118.575 E.70741
G1 X111.425 Y91.425 E.70741
G1 X118.975 Y91.425 E.19672
M73 P9 R7
M73 Q9 S7
G1 X118.975 Y92.975 E.04039
G1 X116.193 Y92.975 E.07248
G1 X116.046 Y93.036 E.00417
G1 X113.079 Y96.003 E.10933
M204 S1000
G1 X112.876 Y96.045 F10800
;WIPE_START
G1 F8640
G1 X112.975 Y96.193 E-.05
G1 X112.975 Y99.268 E-.71
;WIPE_END
G1 E-.04 F2100
G1 Z.75 F720
G1 X111.997 Y95.547 F10800
G1 Z.35 F720
G1 E.8 F2100
;TYPE:Solid infill
;WIDTH:0.501417
G1 F2085
G1 X115.384 Y92.16 E.14013
G1 X114.724 Y92.156 E.01929
M73 P9 R6
G1 X112.156 Y94.724 E.10628
G1 X112.156 Y94.061 E.01942
G1 X114.061 Y92.156 E.07882
G1 X113.397 Y92.156 E.01942
G1 X112.156 Y93.397 E.05136
G1 X112.156 Y92.734 E.01942
G1 X112.922 Y91.968 E.03168
;WIPE_START
G1 F8640
G1 X112.156 Y92.734 E-.24998
G1 X112.156 Y93.397 E-.15322
G1 X113.249 Y92.305 E-.3568
;WIPE_END
G1 E-.04 F2100
G1 Z.75 F720
G1 X138.032 Y95.137 F10800
G1 Z.35 F720
G1 E.8 F2100
;WIDTH:0.480276
G1 F2085
G1 X137.546 Y95.623 E.01921
G1 X137.488 Y95.536 E.00291
G1 X137.243 Y95.291 E.00967
G1 X137.844 Y94.691 E.02373
G1 X137.844 Y94.057 E.01771
G1 X136.927 Y94.974 E.03625
G1 X136.61 Y94.658 E.01252
G1 X137.844 Y93.423 E.04877
G1 X137.844 Y92.79 E.01771
G1 X136.293 Y94.341 E.06129
G1 X135.976 Y94.024 E.01252
G1 X137.844 Y92.156 E.07381
G1 X137.21 Y92.156 E.01771
G1 X135.659 Y93.707 E.06129
G1 X135.342 Y93.39 E.01252
G1 X136.576 Y92.156 E.04877
G1 X135.943 Y92.156 E.01771
G1 X135.026 Y93.073 E.03625
G1 X134.709 Y92.756 E.01252
G1 X135.309 Y92.156 E.02372
G1 X134.675 Y92.156 E.01771
G1 X134.242 Y92.59 E.01714
;WIPE_START
G1 F8640
G1 X134.675 Y92.156 E-.14159
G1 X135.309 Y92.156 E-.14632
G1 X134.709 Y92.756 E-.19604
G1 X135.026 Y93.073 E-.10346
G1 X135.554 Y92.545 E-.17259
;WIPE_END
G1 E-.04 F2100
G1 Z.75 F720
G1 X138.032 Y117.088 F10800
G1 Z.35 F720
G1 E.8 F2100
;WIDTH:0.496972
M73 Q10 S7
G1 F2085
G1 X137.276 Y117.844 E.031
G1 X136.618 Y117.844 E.01905
M73 P10 R6
G1 X137.844 Y116.618 E.05024
G1 X137.844 Y115.961 E.01905
G1 X135.961 Y117.844 E.07718
G1 X135.834 Y117.844 E.00368
G1 X135.407 Y117.741 E.01274
G1 X137.896 Y115.251 E.10204
;WIPE_START
G1 F8640
G1 X135.569 Y117.579 E-.76
;WIPE_END
G1 E-.04 F2100
G1 Z.75 F720
G1 X114.558 Y117.41 F10800
G1 Z.35 F720
G1 E.8 F2100
;WIDTH:0.480647
G1 F2085
G1 X114.124 Y117.844 E.01716
G1 X113.49 Y117.844 E.01774
G1 X114.091 Y117.243 E.02377
G1 X113.773 Y116.926 E.01254
G1 X112.855 Y117.844 E.03631
G1 X112.221 Y117.844 E.01774
G1 X113.456 Y116.609 E.04886
G1 X113.139 Y116.291 E.01254
G1 X112.156 Y117.275 E.03888
G1 X112.156 Y116.64 E.01774
G1 X112.822 Y115.974 E.02634
G1 X112.506 Y115.657 E.01254
G1 X111.968 Y116.194 E.02126
; stop printing object deauther-case-display-support.stl id:0 copy 0
M106 S170.85
;LAYER_CHANGE
;Z:0.5
;HEIGHT:0.15
;BEFORE_LAYER_CHANGE
G92 E0.0
;0.5


;WIPE_START
G1 F8640
G1 X112.506 Y115.657 E-.1755
G1 X112.822 Y115.974 E-.10355
G1 X112.156 Y116.64 E-.21748
G1 X112.156 Y117.275 E-.14644
G1 X112.515 Y116.916 E-.11703
;WIPE_END
G1 E-.04 F2100
G1 Z.75 F720
;AFTER_LAYER_CHANGE
;0.5
; printing object deauther-case-display-support.stl id:0 copy 0
G1 X112.704 Y115.402 F10800
G1 Z.5 F720
G1 E.8 F2100
M204 S800
;TYPE:Perimeter
;WIDTH:0.488935
G1 F2058
M73 Q10 S6
G1 X112.741 Y115.45 E.00172
;WIDTH:0.449999
G1 X114.55 Y117.259 E.06667
;WIDTH:0.499428
G1 X114.698 Y117.345 E.00498
;WIDTH:0.548857
G1 X114.846 Y117.431 E.00551
;WIDTH:0.598286
G1 X114.993 Y117.517 E.00603
G1 X135.007 Y117.517 E.70654
;WIDTH:0.605741
G1 X135.128 Y117.51 E.00436
G1 X135.209 Y117.447 E.00365
;WIDTH:0.566806
G1 X135.289 Y117.385 E.0034
;WIDTH:0.52787
G1 X135.369 Y117.322 E.00315
;WIDTH:0.488935
G1 X135.45 Y117.259 E.0029
;WIDTH:0.449999
G1 X137.259 Y115.45 E.06667
;WIDTH:0.488935
G1 X137.322 Y115.369 E.0029
;WIDTH:0.52787
G1 X137.385 Y115.289 E.00315
;WIDTH:0.566805
G1 X137.447 Y115.209 E.0034
;WIDTH:0.60574
G1 X137.51 Y115.128 E.00365
G1 X137.517 Y115.007 E.00436
;WIDTH:0.598286
G1 X137.517 Y96.193 E.66417
G1 X137.431 Y96.046 E.00603
;WIDTH:0.548857
G1 X137.345 Y95.898 E.00551
;WIDTH:0.499428
G1 X137.259 Y95.75 E.00498
;WIDTH:0.449999
G1 X134.25 Y92.741 E.11089
;WIDTH:0.499428
G1 X134.102 Y92.655 E.00498
;WIDTH:0.548857
G1 X133.954 Y92.569 E.00551
;WIDTH:0.598286
G1 X133.807 Y92.483 E.00603
G1 X131.517 Y92.483 E.08083
G1 X131.517 Y91.917 E.01999
G1 X133.807 Y91.917 E.08083
G1 X134.078 Y91.892 E.00963
;WIDTH:0.548857
G1 X134.35 Y91.868 E.00879
;WIDTH:0.499428
G1 X134.622 Y91.843 E.00795
;WIDTH:0.449999
G1 X138.157 Y91.843 E.09212
G1 X138.157 Y93.25 E.03667
G1 X138.157 Y95.378 E.05545
;WIDTH:0.499428
G1 X138.132 Y95.65 E.00795
;WIDTH:0.548857
G1 X138.108 Y95.922 E.00879
;WIDTH:0.598286
G1 X138.083 Y96.193 E.00963
G1 X138.083 Y115.007 E.66417
;WIDTH:0.60574
G1 X138.099 Y115.339 E.0119
;WIDTH:0.566805
G1 X138.118 Y115.5 E.00541
;WIDTH:0.52787
G1 X138.138 Y115.661 E.00501
;WIDTH:0.488935
G1 X138.157 Y115.822 E.00462
;WIDTH:0.449999
G1 X138.157 Y118.157 E.06085
G1 X135.822 Y118.157 E.06085
;WIDTH:0.499428
M73 Q11 S6
G1 X135.55 Y118.132 E.00795
;WIDTH:0.548857
M73 P11 R6
G1 X135.278 Y118.108 E.00879
;WIDTH:0.598286
G1 X135.007 Y118.083 E.00963
